X:1
T:Title
%%score { ( 1 4 5 ) | ( 2 3 ) }
L:1/8
M:4/4
K:Ab
V:1 treble nm="Grand Piano"
V:4 treble 
V:5 treble 
V:2 bass 
V:3 bass 
V:1
 z4 z2[Q:1/4=106] EA | [Ec]3 _c [E=c]d[DB]c | [CA]3 c E2 AG | [DF]3 G [GB]A[FA][DF] | [CE]6 EE | %5
 [DB]3 [C=A] [DB][Fd][Ec][DB] | [CA]3 [DB] [Ec]2 =de |[M:17/16] [EGe]-<[EGe]dcBF[C=DA]3/2[A,B,D] | %8
[M:4/4] E4 z4 |[M:3/4] z2 z c cc | [Gd]6 | z2 z f [ce]d | [Ac]6 | z2 z c c_c | [GB]6 | [B=d]4 z2 | %16
[M:7/8] [EG]A [GB]2 [Fd]3 |[M:3/4] z2 z c cc | [Gd]6 | z2 z d [Bd]f | [c=e]6 | [ce]4 z2 | %22
 [ce]2 [Bd]2 [Fd]2 | z2 z d [Fd]d |[M:2/4] [Ac]4 |] %25
V:2
 z4 z2 CC | A,,E, z =D z F z E | A,,E, z E [A,C]2 CE | A,,F, z[K:treble] E z F[K:bass]F,G, | %4
 A,F,E,C, A,,2 CC | E,,E,G,_G, =G,E,F,G, | A,E,C,B,, A,,2 [=A,,=A,]2 | %7
[M:17/16] z/ z/ z/ z/ z/ z/ z =D-<D z/ z/ z/ z |[M:4/4] z2 A,2 B,4 |[M:3/4] A,,2 z[K:treble] A EF | %10
 B,,2 E,2 E,2 | E,,2 z[K:treble] d z B | A,,2 E,2 E,2 | A,,2 z[K:treble] A EF | B,,2 G,2 G,2 | %15
 B,,2 z[K:treble] A z F |[M:7/8] z F[K:bass] [E,G,B,D]2 E,,3 |[M:3/4] A,,2 z[K:treble] A EF | %18
 B,,2 E,2 E,2 | E,2 z[K:treble] G z d | C,2 G,2 G,2 | F,,2 z[K:treble] =A z F | %22
 B,,2 [F,B,D]2 [F,B,D]2 | E,2 z[K:treble] B z G |[M:2/4][K:bass] A,,2 E,2 |] %25
V:3
 x8 | z2 A,2 E,2 E,,2 | z2 A,2 z4 | z2 A,2[K:treble] A,2[K:bass] z2 | x8 | x8 | x8 | %7
[M:17/16] [B,,B,]-<[B,,B,][B,,G,]-<[B,,G,]F,A,B,,3/2B,, |[M:4/4] E,8 | %9
[M:3/4] z2 E,2[K:treble] [E,A,C]2 | x6 | z2 E,2[K:treble] [D,G,D]2 | x6 | %13
 z2 E,2[K:treble] [E,A,C]2 | x6 | z2 F,2[K:treble] [F,A,B,=D]2 |[M:7/8] E,2[K:bass] z z z z2 | %17
[M:3/4] z2 E,2[K:treble] [E,A,C]2 | x6 | z2 E,2[K:treble] [E,G,D]2 | x6 | %21
 z2 F,2[K:treble] [F,=A,E]2 | x6 | z2 E,2[K:treble] [E,G,D]2 |[M:2/4][K:bass] x4 |] %25
V:4
 x8 | x8 | x8 | x8 | x8 | x8 | z4 z2 [E_G]2 |[M:17/16] z/ z/ z E-<E z/ z/ z/ z/ z/ z/ z/ z | %8
[M:4/4] [G,B,]2 C2 [DGd]4 |[M:3/4] [Ec]4 z2 | z2 [G,D]2 [G,D]2 | [Ed]4 z2 | z2 [A,C]2 [A,C]2 | %13
 [Ec]4 z2 | z2 [B,E]2 [B,E]2 | z2 z c [GB]A |[M:7/8] x7 |[M:3/4] [Ec]4 z2 | z2 [G,D]2 [G,D]2 | %19
 [Ed]4 z2 | z2 [B,C=E]2 [B,CE]2 | z2 z e [_Ge]e | x6 | [Ed]4 z2 |[M:2/4] z2 [A,C]2 |] %25
V:5
 x8 | x8 | x8 | x8 | x8 | x8 | x8 |[M:17/16] x17/2 |[M:4/4] x8 |[M:3/4] z2 [A,C]2 z2 | x6 | %11
 z2 [G,D]2 z2 | x6 | z2 [A,C]2 z2 | x6 | z2 [A,B,=D]2 z2 |[M:7/8] x7 |[M:3/4] z2 [A,C]2 z2 | x6 | %19
 z2 [G,D]2 z2 | x6 | z2 [=A,E]2 z2 | x6 | z2 [G,D]2 z2 |[M:2/4] x4 |] %25

